;FLAVOR:Marlin
;TIME:17607
;Filament used: 29.3201m
;Layer height: 0.3
;MINX:3.85
;MINY:8.026
;MINZ:0.3
;MAXX:131.65
;MAXY:63.314
;MAXZ:15.9
;Generated with Cura_SteamEngine 4.12.0
M82 ;absolute extrusion mode
G21 ; set units to millimeters
G90 ; use absolute positioning
M82 ; absolute extrusion mode
M104 S220 ; set extruder temp
M140 S32 ; set bed temp
M190 S32 ; wait for bed temp
M109 S220 ; wait for extruder temp
G28 W ; home all without mesh bed level
G80 ; mesh bed leveling
G92 E0.0 ; reset extruder distance position
G1 Y-3.0 F1000.0 ; go outside print area
G1 X60.0 E9.0 F1000.0 ; intro line
G1 X100.0 E21.5 F1000.0 ; intro line
G92 E0.0 ; reset extruder distance position
G92 E0
G92 E0
G1 F2100 E-1.5
;LAYER_COUNT:53
;LAYER:0
M107
M204 S700
M205 X30 Y30
G0 F5400 X5.556 Y8.78 Z0.3
M204 S500
M205 X20 Y20
;TYPE:SKIRT
G1 F2100 E0
G1 F1200 X6.02 Y8.483 E0.02749
G1 X6.523 Y8.257 E0.055
G1 X7.053 Y8.106 E0.08249
G1 X7.826 Y8.027 E0.12126
G1 X127.674 Y8.026 E6.1005
G1 X128.224 Y8.066 E6.12801
G1 X128.762 Y8.185 E6.1555
G1 X129.277 Y8.38 E6.18297
G1 X129.758 Y8.648 E6.21044
G1 X130.361 Y9.139 E6.24924
G1 X130.537 Y9.315 E6.26166
G1 X130.897 Y9.732 E6.28914
G1 X131.194 Y10.196 E6.31663
G1 X131.42 Y10.699 E6.34414
G1 X131.571 Y11.229 E6.37163
G1 X131.65 Y12.002 E6.4104
G1 X131.65 Y59.337 E8.77195
G1 X131.61 Y59.887 E8.79946
G1 X131.491 Y60.425 E8.82695
G1 X131.295 Y60.94 E8.85444
G1 X131.027 Y61.421 E8.88191
G1 X130.537 Y62.024 E8.92068
G1 X130.361 Y62.2 E8.9331
G1 X129.944 Y62.56 E8.96058
G1 X129.48 Y62.857 E8.98807
G1 X128.977 Y63.083 E9.01558
G1 X128.447 Y63.234 E9.04307
G1 X127.674 Y63.313 E9.08184
G1 X7.826 Y63.314 E15.06108
G1 X7.276 Y63.274 E15.08859
G1 X6.738 Y63.155 E15.11608
G1 X6.223 Y62.96 E15.14355
G1 X5.742 Y62.692 E15.17102
G1 X5.139 Y62.201 E15.20982
G1 X4.963 Y62.025 E15.22224
G1 X4.603 Y61.608 E15.24972
G1 X4.306 Y61.144 E15.27721
G1 X4.08 Y60.641 E15.30472
G1 X3.929 Y60.111 E15.33221
G1 X3.85 Y59.338 E15.37098
G1 X3.85 Y12.003 E17.73253
G1 X3.89 Y11.453 E17.76004
G1 X4.009 Y10.915 E17.78753
G1 X4.205 Y10.4 E17.81502
G1 X4.473 Y9.919 E17.8425
G1 X4.963 Y9.316 E17.88126
G1 X5.139 Y9.14 E17.89368
G1 X5.556 Y8.78 E17.92116
M204 S700
M205 X30 Y30
G0 F5400 X5.818 Y9.084
M204 S500
M205 X20 Y20
G1 F1200 X6.26 Y8.809 E17.94713
G1 X6.74 Y8.605 E17.97315
G1 X7.245 Y8.477 E17.99914
G1 X7.826 Y8.427 E18.02824
G1 X127.674 Y8.426 E24.00748
G1 X128.194 Y8.466 E24.0335
G1 X128.701 Y8.585 E24.05948
G1 X129.184 Y8.78 E24.08547
G1 X129.632 Y9.046 E24.11146
G1 X130.078 Y9.422 E24.14056
G1 X130.254 Y9.598 E24.15298
G1 X130.593 Y9.994 E24.17899
G1 X130.868 Y10.436 E24.20496
G1 X131.072 Y10.916 E24.23098
G1 X131.2 Y11.421 E24.25697
G1 X131.25 Y12.002 E24.28606
G1 X131.25 Y59.337 E26.64762
G1 X131.21 Y59.857 E26.67364
G1 X131.091 Y60.364 E26.69962
G1 X130.896 Y60.847 E26.7256
G1 X130.63 Y61.295 E26.7516
G1 X130.254 Y61.741 E26.7807
G1 X130.078 Y61.917 E26.79312
G1 X129.682 Y62.256 E26.81913
G1 X129.24 Y62.531 E26.8451
G1 X128.76 Y62.735 E26.87112
G1 X128.255 Y62.863 E26.89711
G1 X127.674 Y62.913 E26.9262
G1 X7.826 Y62.914 E32.90544
G1 X7.306 Y62.874 E32.93146
G1 X6.799 Y62.755 E32.95744
G1 X6.316 Y62.56 E32.98343
G1 X5.868 Y62.294 E33.00943
G1 X5.422 Y61.918 E33.03853
G1 X5.246 Y61.742 E33.05095
G1 X4.907 Y61.346 E33.07695
G1 X4.632 Y60.904 E33.10292
G1 X4.428 Y60.424 E33.12894
G1 X4.3 Y59.919 E33.15494
G1 X4.25 Y59.338 E33.18403
G1 X4.25 Y12.003 E35.54558
G1 X4.29 Y11.483 E35.5716
G1 X4.409 Y10.976 E35.59758
G1 X4.604 Y10.493 E35.62357
G1 X4.87 Y10.045 E35.64956
G1 X5.246 Y9.599 E35.67867
G1 X5.422 Y9.423 E35.69108
G1 X5.818 Y9.084 E35.71709
M204 S700
M205 X30 Y30
G0 F5400 X6.078 Y9.389
M204 S500
M205 X20 Y20
G1 F1200 X6.498 Y9.137 E35.74153
G1 X6.953 Y8.957 E35.76594
G1 X7.431 Y8.853 E35.79035
G1 X7.826 Y8.827 E35.81009
G1 X127.674 Y8.826 E41.78934
G1 X128.162 Y8.866 E41.81376
G1 X128.637 Y8.985 E41.83819
G1 X129.086 Y9.179 E41.8626
G1 X129.498 Y9.444 E41.88704
G1 X129.971 Y9.881 E41.91916
G1 X130.288 Y10.254 E41.94358
G1 X130.54 Y10.674 E41.96802
G1 X130.72 Y11.129 E41.99243
G1 X130.824 Y11.607 E42.01684
G1 X130.85 Y12.002 E42.03659
G1 X130.85 Y59.337 E44.39814
G1 X130.81 Y59.825 E44.42257
G1 X130.691 Y60.3 E44.447
G1 X130.497 Y60.749 E44.4714
G1 X130.232 Y61.161 E44.49584
G1 X129.795 Y61.634 E44.52797
G1 X129.422 Y61.951 E44.55239
G1 X129.002 Y62.203 E44.57683
G1 X128.547 Y62.383 E44.60124
G1 X128.069 Y62.487 E44.62564
G1 X127.674 Y62.513 E44.64539
G1 X7.826 Y62.514 E50.62463
G1 X7.338 Y62.474 E50.64906
G1 X6.863 Y62.355 E50.67349
G1 X6.414 Y62.161 E50.69789
G1 X6.002 Y61.896 E50.72233
G1 X5.529 Y61.459 E50.75446
G1 X5.212 Y61.086 E50.77888
G1 X4.96 Y60.666 E50.80332
G1 X4.78 Y60.211 E50.82773
G1 X4.676 Y59.733 E50.85214
G1 X4.65 Y59.338 E50.87189
G1 X4.65 Y12.003 E53.23344
G1 X4.69 Y11.515 E53.25787
G1 X4.809 Y11.04 E53.2823
G1 X5.003 Y10.591 E53.3067
G1 X5.268 Y10.179 E53.33114
G1 X5.705 Y9.706 E53.36327
G1 X6.078 Y9.389 E53.38769
M204 S700
M205 X30 Y30
G0 F5400 X6.337 Y9.696
M204 S500
M205 X20 Y20
G1 F1200 X6.732 Y9.469 E53.41042
G1 X7.16 Y9.314 E53.43313
G1 X7.826 Y9.227 E53.46664
G1 X127.674 Y9.226 E59.44588
G1 X128.128 Y9.266 E59.46862
G1 X128.568 Y9.384 E59.49134
G1 X128.98 Y9.578 E59.51406
G1 X129.512 Y9.988 E59.54757
G1 X129.981 Y10.513 E59.58269
G1 X130.208 Y10.908 E59.60542
G1 X130.363 Y11.336 E59.62813
G1 X130.45 Y12.002 E59.66164
G1 X130.45 Y59.337 E62.02319
G1 X130.41 Y59.791 E62.04593
G1 X130.292 Y60.231 E62.06866
G1 X130.098 Y60.643 E62.09138
G1 X129.688 Y61.175 E62.12489
G1 X129.163 Y61.644 E62.16001
G1 X128.768 Y61.871 E62.18274
G1 X128.34 Y62.026 E62.20545
G1 X127.674 Y62.113 E62.23896
G1 X7.826 Y62.114 E68.2182
G1 X7.372 Y62.074 E68.24094
G1 X6.932 Y61.956 E68.26366
G1 X6.52 Y61.762 E68.28638
G1 X5.988 Y61.352 E68.31989
G1 X5.519 Y60.827 E68.35501
G1 X5.292 Y60.432 E68.37774
G1 X5.137 Y60.004 E68.40045
G1 X5.05 Y59.338 E68.43396
G1 X5.05 Y12.003 E70.79552
G1 X5.09 Y11.549 E70.81825
G1 X5.208 Y11.109 E70.84098
G1 X5.402 Y10.697 E70.8637
G1 X5.812 Y10.165 E70.89721
G1 X6.337 Y9.696 E70.93233
M204 S700
M205 X30 Y30
G0 F5400 X6.594 Y10.005
M204 S500
M205 X20 Y20
G1 F1200 X6.961 Y9.804 E70.95321
G1 X7.361 Y9.677 E70.97414
G1 X7.826 Y9.627 E70.99748
G1 X127.674 Y9.626 E76.97672
G1 X128.091 Y9.666 E76.99762
G1 X128.493 Y9.784 E77.01852
G1 X128.865 Y9.977 E77.03943
G1 X129.406 Y10.446 E77.07515
G1 X129.672 Y10.77 E77.09606
G1 X129.873 Y11.137 E77.11694
G1 X130 Y11.537 E77.13788
G1 X130.05 Y12.002 E77.16121
G1 X130.05 Y59.337 E79.52276
G1 X130.01 Y59.754 E79.54366
G1 X129.892 Y60.156 E79.56456
G1 X129.699 Y60.528 E79.58547
G1 X129.23 Y61.069 E79.62119
G1 X128.906 Y61.335 E79.64211
G1 X128.539 Y61.536 E79.66298
G1 X128.139 Y61.663 E79.68392
G1 X127.674 Y61.713 E79.70725
G1 X7.826 Y61.714 E85.6865
G1 X7.409 Y61.674 E85.70739
G1 X7.007 Y61.556 E85.7283
G1 X6.635 Y61.363 E85.74921
G1 X6.094 Y60.894 E85.78493
G1 X5.828 Y60.57 E85.80584
G1 X5.627 Y60.203 E85.82672
G1 X5.5 Y59.803 E85.84765
G1 X5.45 Y59.338 E85.87099
G1 X5.45 Y12.003 E88.23254
G1 X5.49 Y11.586 E88.25344
G1 X5.608 Y11.184 E88.27434
G1 X5.801 Y10.812 E88.29525
G1 X6.27 Y10.271 E88.33097
G1 X6.594 Y10.005 E88.35188
M204 S700
M205 X30 Y30
G0 F5400 X6.848 Y10.316
M204 S500
M205 X20 Y20
G1 F1200 X7.186 Y10.145 E88.37078
G1 X7.552 Y10.048 E88.38967
G1 X7.826 Y10.027 E88.40338
G1 X127.674 Y10.026 E94.38262
G1 X128.051 Y10.066 E94.40154
G1 X128.411 Y10.184 E94.42044
G1 X128.738 Y10.374 E94.43931
G1 X129.123 Y10.729 E94.46543
G1 X129.361 Y11.024 E94.48434
G1 X129.532 Y11.362 E94.50324
G1 X129.629 Y11.728 E94.52213
G1 X129.65 Y12.002 E94.53584
G1 X129.65 Y59.337 E96.89739
G1 X129.61 Y59.714 E96.91631
G1 X129.492 Y60.074 E96.93521
G1 X129.302 Y60.401 E96.95408
G1 X128.947 Y60.786 E96.9802
G1 X128.652 Y61.024 E96.99911
G1 X128.314 Y61.195 E97.01801
G1 X127.948 Y61.292 E97.0369
G1 X127.674 Y61.313 E97.05061
G1 X7.826 Y61.314 E103.02985
G1 X7.449 Y61.274 E103.04877
G1 X7.089 Y61.156 E103.06767
G1 X6.762 Y60.966 E103.08654
G1 X6.377 Y60.611 E103.11266
G1 X6.139 Y60.316 E103.13157
G1 X5.968 Y59.978 E103.15047
G1 X5.871 Y59.612 E103.16936
G1 X5.85 Y59.338 E103.18307
G1 X5.85 Y12.003 E105.54463
G1 X5.89 Y11.626 E105.56354
G1 X6.008 Y11.266 E105.58244
G1 X6.198 Y10.939 E105.60131
G1 X6.553 Y10.554 E105.62744
G1 X6.848 Y10.316 E105.64635
M204 S700
M205 X30 Y30
G0 F5400 X7.099 Y10.631
M204 S500
M205 X20 Y20
G1 F1200 X7.403 Y10.492 E105.66302
G1 X7.826 Y10.427 E105.68437
G1 X127.674 Y10.426 E111.66361
G1 X128.006 Y10.466 E111.6803
G1 X128.318 Y10.583 E111.69692
G1 X128.84 Y11.012 E111.73063
G1 X129.046 Y11.275 E111.7473
G1 X129.185 Y11.579 E111.76398
G1 X129.25 Y12.002 E111.78533
G1 X129.25 Y59.337 E114.14688
G1 X129.21 Y59.669 E114.16356
G1 X129.093 Y59.981 E114.18019
G1 X128.664 Y60.503 E114.2139
G1 X128.401 Y60.709 E114.23056
G1 X128.097 Y60.848 E114.24724
G1 X127.674 Y60.913 E114.26859
G1 X7.826 Y60.914 E120.24783
G1 X7.494 Y60.874 E120.26452
G1 X7.182 Y60.757 E120.28114
G1 X6.66 Y60.328 E120.31485
G1 X6.454 Y60.065 E120.33152
G1 X6.315 Y59.761 E120.34819
G1 X6.25 Y59.338 E120.36954
G1 X6.25 Y12.003 E122.7311
G1 X6.29 Y11.671 E122.74778
G1 X6.407 Y11.359 E122.7644
G1 X6.836 Y10.837 E122.79811
G1 X7.099 Y10.631 E122.81478
M204 S700
M205 X30 Y30
G0 F5400 X7.345 Y10.951
M204 S500
M205 X20 Y20
G1 F1200 X7.609 Y10.851 E122.82886
G1 X7.826 Y10.827 E122.83976
G1 X127.674 Y10.826 E128.819
G1 X127.953 Y10.866 E128.83306
G1 X128.21 Y10.982 E128.84713
G1 X128.557 Y11.295 E128.87044
G1 X128.726 Y11.521 E128.88452
G1 X128.826 Y11.785 E128.8986
G1 X128.85 Y12.002 E128.9095
G1 X128.85 Y59.337 E131.27105
G1 X128.81 Y59.616 E131.28511
G1 X128.694 Y59.873 E131.29918
G1 X128.381 Y60.22 E131.32249
G1 X128.155 Y60.389 E131.33657
G1 X127.891 Y60.489 E131.35066
G1 X127.674 Y60.513 E131.36155
G1 X7.826 Y60.514 E137.34079
G1 X7.547 Y60.474 E137.35485
G1 X7.29 Y60.358 E137.36892
G1 X6.943 Y60.045 E137.39223
G1 X6.774 Y59.819 E137.40631
G1 X6.674 Y59.555 E137.4204
G1 X6.65 Y59.338 E137.43129
G1 X6.65 Y12.003 E139.79284
G1 X6.69 Y11.724 E139.8069
G1 X6.806 Y11.467 E139.82097
G1 X7.119 Y11.12 E139.84428
G1 X7.345 Y10.951 E139.85836
M204 S700
M205 X30 Y30
G0 F5400 X7.581 Y11.279
M204 S500
M205 X20 Y20
G1 F1200 X7.826 Y11.227 E139.87086
G1 X127.674 Y11.226 E145.8501
G1 X127.889 Y11.266 E145.86101
G1 X128.098 Y11.402 E145.87345
G1 X128.398 Y11.757 E145.89664
G1 X128.45 Y12.002 E145.90913
G1 X128.45 Y59.337 E148.27069
G1 X128.41 Y59.552 E148.2816
G1 X128.274 Y59.761 E148.29404
G1 X127.919 Y60.061 E148.31722
G1 X127.674 Y60.113 E148.32972
G1 X7.826 Y60.114 E154.30896
G1 X7.611 Y60.074 E154.31987
G1 X7.402 Y59.938 E154.33231
G1 X7.102 Y59.583 E154.3555
G1 X7.05 Y59.338 E154.368
G1 X7.05 Y12.003 E156.72955
G1 X7.09 Y11.788 E156.74046
G1 X7.226 Y11.579 E156.7529
G1 X7.581 Y11.279 E156.77609
M204 S700
M205 X30 Y30
G0 F5400 X7.685 Y11.686
M204 S500
M205 X20 Y20
G1 F1200 X7.826 Y11.627 E156.78371
G1 X127.674 Y11.626 E162.76295
G1 X127.815 Y11.685 E162.77058
G1 X127.991 Y11.861 E162.783
G1 X128.05 Y12.002 E162.79062
G1 X128.05 Y59.337 E165.15218
G1 X127.991 Y59.478 E165.1598
G1 X127.815 Y59.654 E165.17222
G1 X127.674 Y59.713 E165.17984
G1 X7.826 Y59.714 E171.15908
G1 X7.685 Y59.655 E171.16671
G1 X7.509 Y59.479 E171.17913
G1 X7.45 Y59.338 E171.18675
G1 X7.45 Y12.003 E173.54831
G1 X7.509 Y11.862 E173.55593
G1 X7.685 Y11.686 E173.56835
M204 S700
M205 X30 Y30
;MESH:Main Case Printed Middle Part.STL
G0 F5400 X7.95 Y12.127
M204 S500
M205 X20 Y20
;TYPE:WALL-OUTER
G1 F1800 X127.55 Y12.126 E179.53522
G1 X127.55 Y59.213 E181.8844
G1 X7.95 Y59.214 E187.85127
G1 X7.95 Y12.127 E190.20045
M204 S700
M205 X30 Y30
G0 F5400 X8.15 Y12.127
G0 X8.39 Y12.567
G0 X8.45 Y12.567
G0 X46.093 Y34.654
G0 X46.548 Y34.86
M204 S500
M205 X20 Y20
G1 F1800 X46.347 Y35.307 E190.2249
G1 X46.305 Y35.796 E190.24938
G1 X46.429 Y36.27 E190.27383
G1 X46.706 Y36.675 E190.29831
G1 X47.1 Y36.967 E190.32277
G1 X47.569 Y37.109 E190.34722
G1 X48.059 Y37.088 E190.37169
G1 X48.514 Y36.905 E190.39616
G1 X48.88 Y36.58 E190.42058
G1 X49.118 Y36.151 E190.44505
G1 X49.201 Y35.668 E190.4695
G1 X49.117 Y35.185 E190.49396
G1 X48.878 Y34.756 E190.51846
G1 X48.509 Y34.434 E190.5429
G1 X48.054 Y34.252 E190.56734
G1 X47.809 Y34.221 E190.57966
G1 X47.323 Y34.284 E190.60411
G1 X46.885 Y34.505 E190.62859
G1 X46.548 Y34.86 E190.65301
M204 S700
M205 X30 Y30
G0 F5400 X46.466 Y35.042
G0 X46.211 Y34.634
M204 S500
M205 X20 Y20
;TYPE:WALL-INNER
G1 F1800 X45.954 Y35.205 E190.68425
G1 X45.901 Y35.83 E190.71554
G1 X46.06 Y36.438 E190.7469
G1 X46.414 Y36.956 E190.7782
G1 X46.918 Y37.33 E190.80951
G1 X47.518 Y37.512 E190.84079
G1 X48.145 Y37.485 E190.8721
G1 X48.728 Y37.25 E190.90346
G1 X49.197 Y36.834 E190.93474
G1 X49.501 Y36.286 E190.966
G1 X49.607 Y35.668 E190.99728
G1 X49.499 Y35.05 E191.02858
G1 X49.194 Y34.5 E191.05996
G1 X48.721 Y34.088 E191.09126
G1 X48.155 Y33.862 E191.12166
G1 X47.808 Y33.818 E191.13911
G1 X47.204 Y33.896 E191.1695
G1 X46.643 Y34.179 E191.20084
G1 X46.211 Y34.634 E191.23215
M204 S700
M205 X30 Y30
G0 F5400 X46.128 Y34.579
G0 X47.193 Y33.858
G0 X59.941 Y34.963
G0 X60.433 Y35.047
M204 S500
M205 X20 Y20
;TYPE:WALL-OUTER
G1 F1800 X60.433 Y36.293 E191.29431
G1 X60.644 Y37.521 E191.35647
G1 X61.058 Y38.696 E191.41862
G1 X61.666 Y39.782 E191.48072
G1 X62.448 Y40.752 E191.54288
G1 X63.384 Y41.575 E191.60506
G1 X64.444 Y42.228 E191.66717
G1 X65.6 Y42.693 E191.72934
G1 X66.818 Y42.955 E191.79149
G1 X67.961 Y43.002 E191.84857
G1 X68.061 Y43.008 E191.85357
G1 X69.298 Y42.849 E191.91579
G1 X70.489 Y42.485 E191.97792
G1 X71.601 Y41.924 E192.04006
G1 X72.603 Y41.184 E192.1022
G1 X73.465 Y40.284 E192.16438
G1 X74.161 Y39.253 E192.22644
G1 X74.675 Y38.117 E192.28864
G1 X74.989 Y36.912 E192.35077
G1 X75.085 Y35.771 E192.40789
G1 X75.095 Y35.671 E192.41291
G1 X74.989 Y34.429 E192.4751
G1 X74.675 Y33.224 E192.53722
G1 X74.161 Y32.088 E192.59943
G1 X73.465 Y31.057 E192.66149
G1 X72.603 Y30.157 E192.72366
G1 X71.601 Y29.417 E192.78581
G1 X70.489 Y28.856 E192.84795
G1 X69.298 Y28.491 E192.91009
G1 X68.062 Y28.332 E192.97227
G1 X66.817 Y28.386 E193.03444
G1 X65.6 Y28.648 E193.09655
G1 X64.444 Y29.113 E193.15871
G1 X63.384 Y29.766 E193.22082
G1 X62.448 Y30.589 E193.283
G1 X61.666 Y31.559 E193.34516
G1 X61.058 Y32.645 E193.40726
G1 X60.644 Y33.82 E193.46941
G1 X60.433 Y35.047 E193.53153
M204 S700
M205 X30 Y30
G0 F5400 X60.433 Y35.247
G0 X60.033 Y35.013
M204 S500
M205 X20 Y20
;TYPE:WALL-INNER
G1 F1800 X60.033 Y36.327 E193.59708
G1 X60.256 Y37.622 E193.66264
G1 X60.692 Y38.861 E193.72817
G1 X61.333 Y40.007 E193.79368
G1 X62.158 Y41.03 E193.85925
G1 X63.145 Y41.898 E193.92482
G1 X64.263 Y42.586 E193.99031
G1 X65.482 Y43.077 E194.05588
G1 X66.767 Y43.353 E194.12145
G1 X67.945 Y43.402 E194.18027
G1 X68.075 Y43.41 E194.18677
G1 X69.383 Y43.241 E194.25257
G1 X70.639 Y42.858 E194.31808
G1 X71.811 Y42.266 E194.38359
G1 X72.868 Y41.485 E194.44915
G1 X73.777 Y40.536 E194.51471
G1 X74.511 Y39.449 E194.58015
G1 X75.053 Y38.251 E194.64575
G1 X75.385 Y36.98 E194.71129
G1 X75.483 Y35.811 E194.76982
G1 X75.497 Y35.674 E194.77669
G1 X75.385 Y34.361 E194.84243
G1 X75.053 Y33.09 E194.90797
G1 X74.511 Y31.892 E194.97357
G1 X73.777 Y30.805 E195.039
G1 X72.868 Y29.856 E195.10457
G1 X71.811 Y29.075 E195.17013
G1 X70.639 Y28.484 E195.23562
G1 X69.383 Y28.099 E195.30116
G1 X68.079 Y27.931 E195.36675
G1 X66.766 Y27.988 E195.43232
G1 X65.482 Y28.264 E195.49784
G1 X64.263 Y28.755 E195.56341
G1 X63.145 Y29.443 E195.6289
G1 X62.158 Y30.311 E195.69447
G1 X61.333 Y31.334 E195.76004
G1 X60.692 Y32.48 E195.82555
G1 X60.256 Y33.719 E195.89108
G1 X60.033 Y35.013 E195.95659
M204 S700
M205 X30 Y30
G0 F5400 X59.934 Y35.005
G0 X60.218 Y33.709
G0 X60.656 Y32.464
G0 X61.3 Y31.312
G0 X62.13 Y30.284
G0 X63.122 Y29.411
G0 X64.245 Y28.72
G0 X65.471 Y28.226
G0 X66.761 Y27.949
G0 X68.08 Y27.892
G0 X69.391 Y28.06
G0 X70.412 Y28.373
G0 X85.808 Y35.754
G0 X86.305 Y35.796
M204 S500
M205 X20 Y20
;TYPE:WALL-OUTER
G1 F1800 X86.429 Y36.27 E195.98103
G1 X86.706 Y36.675 E196.00551
G1 X87.1 Y36.967 E196.02998
G1 X87.569 Y37.109 E196.05443
G1 X88.059 Y37.088 E196.0789
G1 X88.514 Y36.905 E196.10336
